!!!!SEGMENT: pl-kk--kk-i-2--025_anonim--alleluia-dies-sanctificatus.krn
!!!cenid: 16xx:1643
!!!COM: Anonim
!!!COM-rismID: pe30004985
!!!CDT:
!!!CNT:
!!!OTL: Alleluia. Dies sanctificatus
!!!PDT:
!!!AGN: Sacred
!!!YEC: Copyright 2022 Narodowy Instytut Fryderyka Chopina (https://polishscores.org)
!!!YEM: License CC-BY-4.0 (https://creativecommons.org/licenses/by/4.0)
!!!SMS-siglum: PL-Kk
!!!SMS-shelfmark: Kk.I.2
!!!SMS-shelfwork: 025 W
!!!SMS-variant:
!!!SMS-altvar:
!!!NIFC-rismSourceID: 300258016
!!!NIFC-rismChildID: 300258041
!!!NIFC-islandoraID: pl-kk:750
!!!URL-pdf-islandora: https://repozytorium.nifc.pl/islandora/object/pl-kk%3A750/datastream/PDF/view
!!!URL-scan: https://polish.musicsources.pl/pl/lokalizacje/galeria/rekopisy/5828 @EN{Scan on Polish Music Sources Website} @PL{Skany w portalu Dziedzictwo Muzyki Polskiej w otwartym dostępie}
!!!IIIF: https://repozytorium.nifc.pl/islandora/object/pl-kk%3A750/datastream/IIIF/view
!!!ONB-nifc: skany: C: 0053; A: 0154-0155; T: 0257; B: 0355;
!!!OMD:
!!!AIN: 1 alto 1 bass 1 soprn 1 tenor
!!!key: d:dor-hypo
**kern	**text	**kern	**text	**kern	**text	**kern	**text
*part4	*	*part3	*	*part2	*	*part1	*
*staff4	*	*staff3	*	*staff2	*	*staff1	*
*I"BASVS	*	*I"TENOR	*	*I"ALTVS	*	*I"DISCANTVS	*
*I'B	*	*I'T	*	*I'A	*	*I'S	*
*Ibass	*	*Itenor	*	*Ialto	*	*Isoprn	*
*ICvox	*	*ICvox	*	*ICvox	*	*ICvox	*
*clefF4	*	*clefC4	*	*clefC4	*	*clefC2	*
*k[]	*	*k[]	*	*k[]	*	*k[]	*
*d:	*	*d:	*	*d:	*	*d:	*
*M2/1	*	*M2/1	*	*M2/1	*	*M2/1	*
*met(C|)	*	*	*	*met(C|)	*	*	*
*all\right	*	*all\right	*	*	*	*all\right	*
=1-	=1-	=1-	=1-	=1-	=1-	=1-	=1-
*xywh-#355:1392,705,6326,1086	*	*xywh-#257:1500,2172,6265,1016	*	*xywh-#154:7926,3752,6293,1341	*	*xywh-#53:1605,574,6290,1098	*
!	!	!LO:TX:t=P:problem=brak metrum	!	!	!	!LO:TX:t=P:problem=brak metrum	!
1C	Al-	2.G/	Al-	1c	Al-	1c	Al-
.	.	4A/	-le-	.	.	.	.
*	*	*	*	*lig	*	*lig	*
1G	-le-	4B/	.	1B	-le-	1d	-le-
.	.	4c/	.	.	.	.	.
.	.	1.d/	.	.	.	.	.
=2-	=2-	=2-	=2-	=2-	=2-	=2-	=2-
*lig	*	*	*	*	*	*	*
1D	.	.	.	1A	.	1f	.
*	*	*lig	*	*Xlig	*	*Xlig	*
*col	*	*	*	*lig	*	*lig	*
2.E/	.	1B	.	1G	.	1g	.
*Xlig	*	*	*	*	*	*	*
4D/	.	.	.	.	.	.	.
*Xcol	*	*	*	*	*	*	*
=3-	=3-	=3-	=3-	=3-	=3-	=3-	=3-
2C/	.	1c	.	1.A	.	1e	.
2AA/	.	.	.	.	.	.	.
*	*	*Xlig	*	*Xlig	*	*Xlig	*
*	*	*2\right	*	*	*	*	*
1D	.	2d\	.	.	.	1f	.
.	.	2A/	.	4G/	.	.	.
.	.	.	.	4F/	.	.	.
=4-	=4-	=4-	=4-	=4-	=4-	=4-	=4-
2C/	.	2c\	.	2G/	.	2e/	.
2D/	.	2B\	.	2F/	.	1d	.
1AA	lu-	1A	-lu-	1E	-lu-	.	.
.	.	.	.	.	.	2c/	-lu-
=5-	=5-	=5-	=5-	=5-	=5-	=5-	=5-
!LO:TX:t=P:problem=kreska pseudotaktowa	!	!LO:TX:t=P:problem=kreska pseudotaktowa	!	!	!	!	!
0D	-ia	0A	-ia	0D;	-ia	0d	-ia
=6||-	=6||-	=6||-	=6||-	=6||-	=6||-	=6||-	=6||-
*	*	*	*	*	*	*lig	*
00r	.	1r	.	1D	Di-	1d	Di-
.	.	2r	.	2E/	.	1c	.
.	.	1A/	Di-	1F/	-es	.	.
*	*	*	*	*	*	*Xlig	*
=7-	=7-	=7-	=7-	=7-	=7-	=7-	=7-
*	*	*	*	*	*	*lig	*
.	.	.	.	.	.	1d	-es
.	.	2B/	-es	2G/	.	.	.
*	*	*	*	*	*	*col	*
.	.	1c	.	1A	.	2.f/	.
*	*	*	*	*	*	*Xlig	*
.	.	.	.	.	.	4e/	.
*	*	*	*	*	*	*Xcol	*
=8-	=8-	=8-	=8-	=8-	=8-	=8-	=8-
1D	Di-	2.d\	.	2r	.	1f	.
.	.	.	.	2A/	San-	.	.
.	.	4c\	.	.	.	.	.
2E/	-es	2B/	.	2G/	-cti-	2g/	.
*	*	*lig	*	*	*	*	*
1F\	.	1A/	.	1c\	-fi-	1a\	.
=9-	=9-	=9-	=9-	=9-	=9-	=9-	=9-
.	.	.	.	.	.	.	.
*2\right	*	*	*	*	*	*	*
2G\	.	1.d	.	2B/	-ca-	1g	.
1D	san-	.	.	1A	-tus	.	.
.	.	.	.	.	.	2f/	.
*	*	*Xlig	*	*	*	*	*
=10-	=10-	=10-	=10-	=10-	=10-	=10-	=10-
*	*	*	*	*	*	*lig	*
2E/	-cti-	2B/	.	2G/	.	1g	.
2C/	-fi-	2c/	.	2E/	.	.	.
*	*	*custos:B	*	*custos:G	*	*	*
4D/	-ca-	1A	.	1F	.	1f	.
4C/	-us	.	.	.	.	.	.
4BB/	.	.	.	.	.	.	.
4AA/	.	.	.	.	.	.	.
*	*	*	*	*	*	*Xlig	*
=11-	=11-	=11-	=11-	=11-	=11-	=11-	=11-
!	!	!LO:LB:g=original	!	!LO:PB:g=original	!	!	!
*	*	*xywh-#257:1486,3071,6272,843	*	*xywh-#155:1628,532,6182,1085	*	*	*
2GG/	.	2B/	.	2G/	.	2d/	.
1FF	.	1c	.	1A	.	1f	.
*custos:AA	*	*	*	*	*	*	*
2GG/	.	2B/	.	4G/	.	4e/	.
.	.	.	.	4F/	.	4d/	.
=12-	=12-	=12-	=12-	=12-	=12-	=12-	=12-
!LO:LB:g=original	!	!	!	!	!	!	!
*xywh-#355:1399,1549,6271,982	*	*	*	*	*	*	*
2AA/	Il-	2A/	.	2E/	.	2c/	.
2BB/	-lu-	2G/	.	2D/	.	1d	.
*lig	*	*	*	*	*	*	*
1AA	-xit	1A	.	1E	.	.	.
.	.	.	.	.	.	2c/	.
=13-	=13-	=13-	=13-	=13-	=13-	=13-	=13-
1.BB	.	2r	.	0D	.	1d	.
.	.	1F	San-	.	.	.	.
.	.	.	.	.	.	2r	.
*Xlig	*	*	*	*	*	*	*
4AA/	.	2.G/	-cti-	.	.	2d/	San-
4GG/	.	.	.	.	.	.	.
=14-	=14-	=14-	=14-	=14-	=14-	=14-	=14-
2FF/	.	.	.	2r	.	2d/	-cti-
.	.	4A/	-fi-	.	.	.	.
*	*	*col	*	*	*	*	*
2GG/	.	2.B/	-ca-	2.G/	Il-	2d/	-fi-
*	*	*	*	*	*	*lig	*
2GG/	.	.	.	.	.	1d	-ca-
.	.	4A/	-tus	4A/	-lu-	.	.
*	*	*Xcol	*	*	*	*	*
!LO:TX:t=P:problem=kreska pseudotaktowa	!	!	!	!	!	!	!
2GG/	no-	2G/	.	2B-X/	.	.	.
=15-	=15-	=15-	=15-	=15-	=15-	=15-	=15-
2.D/	.	2F/	.	2A\	.	1f	.
*	*	*	*	*lig	*	*	*
.	.	2A/	.	1F	.	.	.
4C/	.	.	.	.	.	.	.
*	*	*	*	*	*	*Xlig	*
!LO:SIC:v:s=2BB-/	!	!	!	!	!	!	!
2BB/	.	1.B-X	.	.	.	1d	-tus
2.GG/	.	.	.	1G/	.	.	.
*	*	*	*	*Xlig	*	*	*
=16-	=16-	=16-	=16-	=16-	=16-	=16-	=16-
*	*	*	*	*	*	*custos:d	*
.	.	.	.	.	.	2r	.
4AA/	.	.	.	.	.	.	.
!	!	!	!	!	!	!LO:LB:g=original	!
*	*	*	*	*	*	*xywh-#53:1577,1470,6248,987	*
4BB/	.	4A/	.	4F/	.	2d/	il-
4C/	.	4G/	.	4E/	.	.	.
*	*	*	*	*	*	*lig	*
2D/	.	2F/	.	2D/	.	1d	-li-
2GG/	.	2G/	.	1G/	.	.	.
=17-	=17-	=17-	=17-	=17-	=17-	=17-	=17-
1D	bis	1A	.	.	.	1f	.
.	.	.	.	2F/	.	.	.
*	*	*	*	*	*	*Xlig	*
2GG/	.	2G/	Il-	0G	xit	1d	-xit
2.G\	.	2.Bny/	-lu-	.	.	.	.
=18-	=18-	=18-	=18-	=18-	=18-	=18-	=18-
.	.	.	.	.	.	2r	.
4A\	.	4c\	-xit	.	.	.	.
2B\	.	1d	.	.	.	2d/	no-
2.A\	.	.	.	1D	.	2.f/	.
.	.	4c\	.	.	.	.	.
4G\	ve-	4B\	.	.	.	4g/	.
=19-	=19-	=19-	=19-	=19-	=19-	=19-	=19-
*	*	*	*	*	*	*2\right	*
*	*	*lig	*	*	*	*	*
2.F\	-ni-	1c	.	2r	.	2.a\	.
.	.	.	.	1A	.	.	.
4E/	-te	.	.	.	.	4g\	.
2D/	.	1d	.	.	.	2f/	.
2G\	.	.	.	2Bny/	no-	2d/	.
*	*	*Xlig	*	*	*	*	*
=20-	=20-	=20-	=20-	=20-	=20-	=20-	=20-
2.C/	gen-	2.e\	no-	2c/	.	2.g\	.
.	.	.	.	4B/	.	.	.
*custos:E	*	*custos:c	*	*	*	*	*
4D/	.	4d\	-bis	4A/	.	4f\	.
!LO:LB:g=original	!	!LO:LB:g=original	!	!	!	!	!
*xywh-#355:1454,2380,6222,989	*	*xywh-#257:1514,3707,6307,1175	*	*	*	*	*
2E/	.	4c\	.	2G/	.	2e/	.
.	.	4B\	.	.	.	.	.
2F\	.	1A\	.	1A\	.	2c/	.
=21-	=21-	=21-	=21-	=21-	=21-	=21-	=21-
1D	.	.	.	.	.	2d/	.
.	.	2B/	.	2F/	.	2f/	.
2C/	.	2c/	.	2G/	.	2e/	.
2BB/	.	2G/	ve-	2D/	.	2.d/	.
=22-	=22-	=22-	=22-	=22-	=22-	=22-	=22-
2AA/	.	1A	-ni-	2E/	-bis	.	.
.	.	.	.	.	.	4c/	.
*	*	*	*	*custos:D	*	*	*
2FF/	.	.	.	2F/	.	1c	.
!	!	!	!	!LO:LB:g=original	!	!	!
*	*	*	*	*xywh-#155:1455,1425,6341,905	*	*	*
1GG	.	1G	-te	1D	.	.	.
.	.	.	.	.	.	2B/	-bis
=23-	=23-	=23-	=23-	=23-	=23-	=23-	=23-
*lig	*	*	*	*	*	*	*
1AA	tes	2E/	.	2C/	.	1c	.
.	.	1A	gen-	1E	.	.	.
1BB	.	.	.	.	.	2r	.
.	.	2G/	.	2D/	.	1d/	Ve-
*Xlig	*	*	*	*	*	*	*
=24-	=24-	=24-	=24-	=24-	=24-	=24-	=24-
*	*	*	*	*lig	*	*	*
1AA	.	1A	.	1E	.	.	.
.	.	.	.	.	.	2c/	-ni-
1r	.	2D/	-tes	1D	.	2d/	-te
.	.	2d\	.	.	.	2A/	.
*	*	*	*	*Xlig	*	*	*
=25-	=25-	=25-	=25-	=25-	=25-	=25-	=25-
2.AA/	et	2.e\	.	1A	.	2.c/	.
4BB/	.	4d\	.	.	.	4d/	.
2C/	.	4c\	.	2G/	.	2e/	.
.	.	4B\	.	.	.	.	.
2D/	.	1A\	.	1F/	.	2f/	.
=26-	=26-	=26-	=26-	=26-	=26-	=26-	=26-
1BB	.	.	.	.	.	1d	.
.	.	2G/	.	4E/	.	.	.
.	.	.	.	4D/	.	.	.
*lig	*	*lig	*	*	*	*lig	*
1AA	A-	1.A	.	1E	.	1c	.
=27-	=27-	=27-	=27-	=27-	=27-	=27-	=27-
*	*	*	*	*	*	*custos:g	*
1.D	.	.	.	2D/	.	1.f	.
.	.	1d	.	1A	.	.	.
*Xlig	*	*Xlig	*	*	*	*Xlig	*
!	!	!	!	!	!	!LO:LB:g=original	!
*	*	*	*	*	*	*xywh-#53:1591,2270,6283,917	*
2E/	-do-	1c\	.	2G/	ve-	1g\	gen-
=28-	=28-	=28-	=28-	=28-	=28-	=28-	=28-
2F\	-ra-	.	.	2A/	-ni-	.	.
2D/	-te	2B/	.	2F/	-te	1f	.
*lig	*	*	*	*	*	*	*
1C	.	1c	.	1G	.	.	.
.	.	.	.	.	.	2e/	.
=29-	=29-	=29-	=29-	=29-	=29-	=29-	=29-
1D	.	1A	.	1F	gen-	0.f	-tes
*Xlig	*	*	*	*	*	*	*
!	!LO:MO:mod=BB-	!	!	!	!	!	!
1BB	.	1d	.	1B-X	-tes	.	.
=30-	=30-	=30-	=30-	=30-	=30-	=30-	=30-
!	!LO:MO:mod=BB-	!	!	!	!	!	!
1BB	.	1d	.	1B-y	.	.	.
2r	.	2r	.	2r	.	2r	.
2D/	.	2d\	et	2A/	et	2f/	et
=31-	=31-	=31-	=31-	=31-	=31-	=31-	=31-
2D/	.	2d\	a-	2A/	a-	2f/	a-
*	*	*custos:d	*	*	*	*	*
2D/	.	2d\	-do-	2A/	-do-	2f/	-do-
!	!	!LO:PB:g=original	!	!	!	!	!
*	*	*xywh-#257:7862,600,6466,1044	*	*	*	*	*
1D	.	1d	-ra	1A	-ra-	1f	-ra-
=32-	=32-	=32-	=32-	=32-	=32-	=32-	=32-
2E/	.	2G/	te	2G/	-te	2.g\	-te
1C	.	1G	.	1c	.	.	.
.	.	.	.	.	.	4f/	do-
.	.	.	.	.	.	2e/	.
2D/	.	2F/	do-	2A/	do-	2f/	.
=33-	=33-	=33-	=33-	=33-	=33-	=33-	=33-
2.G\	do-	2.G/	.	1Bny	-mi	1d	.
*custos:E	*	*	*	*	*	*	*
4F\	.	4A/	.	.	.	.	.
!LO:LB:g=original	!	!	!	!	!	!	!
*xywh-#355:1447,3245,6187,892	*	*	*	*	*	*	*
2E/	-mi-	4B/	.	2G/	.	2e/	.
.	.	4c/	.	.	.	.	.
1.D\	.	2.d\	.	2.A/	num	2.f/	.
=34-	=34-	=34-	=34-	=34-	=34-	=34-	=34-
.	.	.	.	.	.	.	.
.	.	4c/	.	4G/	.	4e/	-mi-
.	.	2B/	.	2F/	.	1d	.
1AA	-num	1A	mi-	1E	.	.	.
.	.	.	.	.	.	2c/	.
=35-	=35-	=35-	=35-	=35-	=35-	=35-	=35-
0D;	.	0A;	-num	0D;	.	0d	-num
=-	=-	=-	=-	=-	=-	=-	=-
*-	*-	*-	*-	*-	*-	*-	*-
!!!system-decoration: [(s1,s2,s3,s4)]
!!!ENC: Marta Opryszak
!!!END: 2022-01-16
!!!ENC: Marta Chmielewska
!!!END: 2022-01-24
!!!ENC-iiif: Natalia Wrzos
!!!END-iiif: 2022-09-02
